localPackages/DesignSystem/Sources/DesignSystem/Resources/Assets.xcassets/IconSet/ic-gift.imageset/ic-gift.svg

<svg width="24" height="24" viewBox="0 0 24 24" fill="none" xmlns="http://www.w3.org/2000/svg">
<g id="ic-gift">
<path id="Icon" fill-rule="evenodd" clip-rule="evenodd" d="M11.25 5.25C11.25 4.00736 10.2426 3 9 3C7.75736 3 6.75 4.00736 6.75 5.25C6.75 6.49264 7.75736 7.5 9 7.5H11.25V5.25ZM5.25 5.25C5.25 6.0942 5.52896 6.87325 5.99973 7.5H3C2.17157 7.5 1.5 8.17157 1.5 9V12C1.5 12.8284 2.17157 13.5 3 13.5V19.5C3 21.1569 4.34315 22.5 6 22.5H18C19.6569 22.5 21 21.1569 21 19.5V13.5C21.8284 13.5 22.5 12.8284 22.5 12V9C22.5 8.17157 21.8284 7.5 21 7.5H18.0003C18.471 6.87325 18.75 6.0942 18.75 5.25C18.75 3.17893 17.0711 1.5 15 1.5C13.7733 1.5 12.6842 2.08901 12 2.99964C11.3158 2.08901 10.2267 1.5 9 1.5C6.92893 1.5 5.25 3.17893 5.25 5.25ZM3 9H9H11.2355L11.2355 12H4.5H3V9ZM11.2355 13.5H4.5V19.5C4.5 20.3284 5.17157 21 6 21H11.2355L11.2355 13.5ZM12.7355 21L12.7355 13.5H19.5V19.5C19.5 20.3284 18.8284 21 18 21H12.7355ZM12.7355 12L12.7355 9H12.75H15H21V12H19.5H12.7355ZM17.25 5.25C17.25 6.49264 16.2426 7.5 15 7.5H12.75V5.25C12.75 4.00736 13.7574 3 15 3C16.2426 3 17.25 4.00736 17.25 5.25Z" fill="#0F0F0F"/>
</g>
</svg>

<svg xmlns="http://www.w3.org/2000/svg" width="24" height="24" viewBox="0 0 24 24">
  <g class="ic-gift">
    <path fill-rule="evenodd" d="M11.25 5.25A2.25 2.25 0 1 0 9 7.5h2.25V5.25Zm-6 0c0 .844.279 1.623.75 2.25H3A1.5 1.5 0 0 0 1.5 9v3A1.5 1.5 0 0 0 3 13.5v6a3 3 0 0 0 3 3h12a3 3 0 0 0 3-3v-6a1.5 1.5 0 0 0 1.5-1.5V9A1.5 1.5 0 0 0 21 7.5h-3A3.75 3.75 0 0 0 12 3a3.75 3.75 0 0 0-6.75 2.25ZM3 9h8.236v3H3V9Zm8.236 4.5H4.5v6A1.5 1.5 0 0 0 6 21h5.236v-7.5Zm1.5 7.5v-7.5H19.5v6A1.5 1.5 0 0 1 18 21h-5.264Zm0-9V9H21v3h-8.264Zm4.514-6.75A2.25 2.25 0 0 1 15 7.5h-2.25V5.25a2.25 2.25 0 0 1 4.5 0Z" class="Icon"/>
  </g>
</svg>
